svgs/arrows/arrow-block-down.svg

<svg width="24" height="24" viewBox="0 0 24 24" fill="none" xmlns="http://www.w3.org/2000/svg">
<path d="M9 3.8C9 3.51997 9 3.37996 9.0545 3.273C9.10243 3.17892 9.17892 3.10243 9.273 3.0545C9.37996 3 9.51997 3 9.8 3H14.2C14.48 3 14.62 3 14.727 3.0545C14.8211 3.10243 14.8976 3.17892 14.9455 3.273C15 3.37996 15 3.51997 15 3.8V14H19L12 21L5 14H9V3.8Z" stroke="#1C1D20" stroke-width="1.5" stroke-linecap="round" stroke-linejoin="round"/>
</svg>

<svg fill="none" xmlns="http://www.w3.org/2000/svg" viewBox="0 0 24 24"><path d="M9 3.8c0-.28 0-.42.055-.527a.5.5 0 0 1 .218-.219C9.38 3 9.52 3 9.8 3h4.4c.28 0 .42 0 .527.054a.5.5 0 0 1 .218.219C15 3.38 15 3.52 15 3.8V14h4l-7 7-7-7h4V3.8Z" stroke="#1C1D20" stroke-width="1.5" stroke-linecap="round" stroke-linejoin="round"/></svg>
